‎{h={|f|1-LFTri.ar(f)};l={|s,e|Line.ar(s,e,1200,1,0,2)};FreeVerb.ar(h.(l.(147,5147))*h.(l.(1117,17))*h.(100)*h.([55,55.1])*0.05,0.7,1)}.play

//Explanation of this piece - http://schemawound.com/post/40100438722/11-13-2012-tweet-explained